static/icon.svg

<?xml version="1.0" encoding="UTF-8" standalone="no"?>
<!DOCTYPE svg PUBLIC "-//W3C//DTD SVG 1.1//EN" "http://www.w3.org/Graphics/SVG/1.1/DTD/svg11.dtd">
<svg width="100%" height="100%" viewBox="0 0 177 91" version="1.1" xmlns="http://www.w3.org/2000/svg" xmlns:xlink="http://www.w3.org/1999/xlink" xml:space="preserve" xmlns:serif="http://www.serif.com/" style="fill-rule:evenodd;clip-rule:evenodd;stroke-linejoin:round;stroke-miterlimit:2;">
    <g transform="matrix(1,0,0,1,-311.772,-298.111)">
        <g transform="matrix(1,0,0,1,433.935,387.08)">
            <path d="M0,-52.003L-30.098,-21.627C-31.654,-20.055 -34.203,-20.084 -35.724,-21.69L-49.842,-36.597C-51.345,-38.184 -53.855,-38.233 -55.42,-36.709L-60.57,-31.689C-62.133,-30.165 -62.149,-27.657 -60.606,-26.114L-35.67,-1.179C-34.158,0.334 -31.711,0.353 -30.175,-1.136L0.172,-30.555C1.705,-32.041 4.146,-32.025 5.66,-30.52L36.864,0.507C37.535,1.174 38.441,1.548 39.388,1.548L50.708,1.548C53.9,1.548 55.494,-2.315 53.231,-4.566L5.545,-52.023C4.01,-53.551 1.524,-53.542 0,-52.003" style="fill:rgb(5,128,196);fill-rule:nonzero;"/>
        </g>
        <g transform="matrix(1,0,0,1,403.389,365.813)">
            <path d="M0,-45.267L13.64,-31.695C15.156,-30.186 17.603,-30.173 19.135,-31.666L24.388,-36.781C25.954,-38.307 25.968,-40.821 24.418,-42.364L0.104,-66.561C-1.414,-68.073 -3.865,-68.083 -5.397,-66.585L-90.533,16.679C-92.826,18.921 -91.238,22.816 -88.031,22.816L-76.621,22.816C-75.686,22.816 -74.788,22.449 -74.12,21.796L-5.5,-45.291C-3.969,-46.788 -1.519,-46.778 0,-45.267" style="fill:rgb(9,24,54);fill-rule:nonzero;"/>
        </g>
    </g>
</svg>

<svg xmlns="http://www.w3.org/2000/svg" xml:space="preserve" style="fill-rule:evenodd;clip-rule:evenodd;stroke-linejoin:round;stroke-miterlimit:2" viewBox="0 0 177 91"><path d="m0-52-30.1 30.4a4 4 0 0 1-5.6 0l-14.1-15a4 4 0 0 0-5.6-.1l-5.2 5a4 4 0 0 0 0 5.6l25 25a4 4 0 0 0 5.4 0L.2-30.6a4 4 0 0 1 5.5 0L36.9.6q1 1 2.5 1h11.3c3.2 0 4.8-3.8 2.5-6L5.5-52A4 4 0 0 0 0-52" style="fill:#0580c4;fill-rule:nonzero" transform="translate(122.2 89)"/><path d="m0-45.3 13.6 13.6a4 4 0 0 0 5.5 0l5.3-5a4 4 0 0 0 0-5.7L.1-66.6a4 4 0 0 0-5.5 0l-85.1 83.3a3.6 3.6 0 0 0 2.5 6.1h11.4q1.5 0 2.5-1l68.6-67a4 4 0 0 1 5.5 0" style="fill:#091836;fill-rule:nonzero" transform="translate(91.6 67.7)"/></svg>
